X: 1
T: the Night We Had the Goats
C: trad., from Natalie MacMaster, arr. T. Traub 1-29-2010
R: Reel
M: 4/4
L: 1/8
K: G
|: ge | "G"dG G/G/G BGBd | "C"e2 eg "G"dBBc | "G"dG G/G/G BGBd | "C"egdB "D"A2 :|
|: Bd | "C"e2 g2 "G"dBBd | "C"e2 g2 "G"de g2 | "C"afge "G"dBBd | "C"egdB "D"A2 :|
